build/img-landing/svg/cap4.svg

<svg width="59" height="59" viewBox="0 0 59 59" fill="none" xmlns="http://www.w3.org/2000/svg">
<path d="M56.4564 52.5077L47.0373 43.077L45.0165 45.0978L43.6344 43.7157C45.5623 41.4742 46.6192 38.6636 46.6192 35.6787C46.6192 32.3687 45.33 29.2677 42.9956 26.9333C42.4962 26.4339 41.9503 25.9925 41.3928 25.586V0H12.4503L1.42847 11.0219V59H41.3928V45.7598C41.6948 45.5392 41.9968 45.3069 42.2871 45.063L43.6692 46.4451L41.6484 48.4659L51.0674 57.885C51.8108 58.6283 52.7863 59 53.7619 59C54.7375 59 55.7131 58.6283 56.4564 57.885C57.943 56.3984 57.943 53.9827 56.4564 52.5077ZM11.8928 3.25197V10.476H4.68044L11.8928 3.25197ZM39.4997 57.0953H39.4881H3.33319V12.3691H13.7976V1.90472H39.4881V24.4827C37.8621 23.7278 36.0968 23.3096 34.2501 23.3096C30.9401 23.3096 27.8391 24.5988 25.5046 26.9333C24.7265 27.7114 24.0761 28.5709 23.5419 29.5H8.095V31.4047H22.6476C22.1482 32.752 21.881 34.1921 21.881 35.6787C21.881 36.8285 22.0436 37.9435 22.3456 39.012H8.095V40.9167H23.0657C23.6696 42.2059 24.4826 43.3905 25.5163 44.4242C27.932 46.84 31.0911 48.0362 34.2617 48.0362C36.0503 48.0362 37.8389 47.6297 39.4997 46.8632V57.0953ZM41.66 43.077C37.5834 47.1535 30.9401 47.1535 26.8519 43.077C24.8775 41.1026 23.7858 38.4661 23.7858 35.6787C23.7858 32.8797 24.8775 30.2549 26.8519 28.2805C28.8263 26.3061 31.4627 25.2144 34.2501 25.2144C37.0491 25.2144 39.6739 26.3061 41.6484 28.2805C43.6228 30.2549 44.7261 32.8797 44.7261 35.6787C44.7261 38.4778 43.6344 41.1026 41.66 43.077ZM55.1092 56.5378C54.3659 57.2811 53.158 57.2811 52.4147 56.5378L44.3428 48.4659L47.0373 45.7715L55.1092 53.8433C55.8525 54.5866 55.8525 55.7945 55.1092 56.5378Z" fill="#E30613"/>
<path d="M28.1528 35.6787C28.1528 34.0528 28.7916 32.5197 29.9414 31.3699C30.313 30.9982 30.313 30.3943 29.9414 30.0226C29.5697 29.651 28.9658 29.651 28.5941 30.0226C27.0843 31.5325 26.248 33.5417 26.248 35.6787C26.248 37.8158 27.0843 39.825 28.5941 41.3348C28.7799 41.5207 29.0238 41.6136 29.2677 41.6136C29.5116 41.6136 29.7555 41.5207 29.9414 41.3348C30.313 40.9632 30.313 40.3593 29.9414 39.9876C28.7916 38.8378 28.1528 37.3047 28.1528 35.6787Z" fill="#E30613"/>
<path d="M34.738 19.988H8.09509V21.8927H34.738V19.988Z" fill="#E30613"/>
<path d="M34.738 49.488H8.09509V51.3927H34.738V49.488Z" fill="#E30613"/>
<path d="M27.1191 7.60727H25.2144V9.51199H27.1191V7.60727Z" fill="#E30613"/>
<path d="M30.9285 7.60727H29.0238V9.51199H30.9285V7.60727Z" fill="#E30613"/>
<path d="M34.738 7.60727H32.8333V9.51199H34.738V7.60727Z" fill="#E30613"/>
</svg>

<svg width="59" height="59" viewBox="0 0 59 59" fill="none" xmlns="http://www.w3.org/2000/svg"><path d="M56.456 52.508l-9.419-9.431-2.02 2.02-1.383-1.381a12.246 12.246 0 0 0 2.985-8.037c0-3.31-1.289-6.411-3.623-8.746-.5-.5-1.046-.94-1.603-1.347V0H12.45L1.428 11.022V59h39.965V45.76c.302-.22.604-.453.894-.697l1.382 1.382-2.02 2.02 9.418 9.42A3.799 3.799 0 0 0 53.762 59a3.8 3.8 0 0 0 2.694-1.115c1.487-1.487 1.487-3.902 0-5.377zM11.893 3.252v7.224H4.68l7.213-7.224zM39.5 57.095H3.333V12.37h10.465V1.905h25.69v22.578a12.383 12.383 0 0 0-5.238-1.173 12.28 12.28 0 0 0-8.745 3.623 12.244 12.244 0 0 0-1.963 2.567H8.095v1.905h14.553a12.272 12.272 0 0 0-.302 7.607H8.095v1.905h14.97a12.307 12.307 0 0 0 11.196 7.12c1.79 0 3.578-.407 5.239-1.174v10.232zm2.16-14.018c-4.077 4.077-10.72 4.077-14.808 0a10.413 10.413 0 0 1-3.066-7.398c0-2.8 1.091-5.424 3.066-7.399a10.412 10.412 0 0 1 7.398-3.066c2.8 0 5.424 1.092 7.398 3.067a10.404 10.404 0 0 1 3.078 7.398c0 2.799-1.092 5.424-3.066 7.398zm13.45 13.46a1.907 1.907 0 0 1-2.695 0l-8.072-8.071 2.694-2.694 8.072 8.071a1.907 1.907 0 0 1 0 2.695z" fill="#E30613"/><path d="M28.153 35.679c0-1.626.639-3.16 1.788-4.31a.953.953 0 0 0-1.347-1.346 7.952 7.952 0 0 0-2.346 5.656 7.95 7.95 0 0 0 2.346 5.656.95.95 0 0 0 1.347 0 .953.953 0 0 0 0-1.347 6.063 6.063 0 0 1-1.788-4.31zm6.585-15.691H8.095v1.905h26.643v-1.905zm0 29.5H8.095v1.905h26.643v-1.905zM27.12 7.607h-1.906v1.905h1.905V7.607zm3.808 0h-1.904v1.905h1.904V7.607zm3.81 0h-1.905v1.905h1.905V7.607z" fill="#E30613"/></svg>
